src/actions/24/appointment-new.svg

<svg xmlns="http://www.w3.org/2000/svg" xmlns:xlink="http://www.w3.org/1999/xlink" width="24" height="24" viewBox="0 0 24 24" version="1.1">
<g id="surface1">
<path style=" stroke:none;fill-rule:nonzero;fill:rgb(18.039216%,20.392157%,25.098041%);fill-opacity:1;" d="M 10.5 6 L 10.5 13.5 L 18 13.5 L 18 12 L 12 12 L 12 6 Z M 10.5 6 "/>
<path style=" stroke:none;fill-rule:nonzero;fill:rgb(18.039216%,20.392157%,25.098041%);fill-opacity:1;" d="M 12 0 C 5.371094 0 0 5.371094 0 12 C 0 18.628906 5.371094 24 12 24 C 13.378906 23.988281 14.746094 23.742188 16.042969 23.269531 C 15.535156 22.960938 15.082031 22.570312 14.703125 22.117188 C 13.824219 22.359375 12.914062 22.492188 12 22.5 C 6.199219 22.5 1.5 17.800781 1.5 12 C 1.5 6.199219 6.199219 1.5 12 1.5 C 17.800781 1.5 22.5 6.199219 22.5 12 C 22.492188 12.914062 22.363281 13.824219 22.117188 14.703125 C 22.570312 15.082031 22.960938 15.535156 23.269531 16.042969 C 23.742188 14.746094 23.988281 13.378906 24 12 C 24 5.371094 18.628906 0 12 0 Z M 12 0 "/>
<path style=" stroke:none;fill-rule:nonzero;fill:rgb(18.039216%,20.392157%,25.098041%);fill-opacity:1;" d="M 18.753906 14.671875 C 16.5 14.671875 14.671875 16.5 14.671875 18.753906 C 14.671875 21.011719 16.5 22.839844 18.753906 22.839844 C 21.011719 22.839844 22.839844 21.011719 22.839844 18.753906 C 22.839844 16.5 21.011719 14.671875 18.753906 14.671875 Z M 18.171875 15.839844 L 19.339844 15.839844 L 19.339844 18.171875 L 21.671875 18.171875 L 21.671875 19.339844 L 19.339844 19.339844 L 19.339844 21.671875 L 18.171875 21.671875 L 18.171875 19.339844 L 15.835938 19.339844 L 15.835938 18.171875 L 18.171875 18.171875 Z M 18.171875 15.839844 "/>
</g>
</svg>

<svg width="24" height="24" version="1.1" viewBox="0 0 24 24" xmlns="http://www.w3.org/2000/svg">
 <g fill="#2e3440">
  <path d="m10.5 6v7.5h7.5v-1.5h-6v-6z"/>
  <path d="m12 0c-6.6289 0-12 5.3711-12 12s5.3711 12 12 12c1.3789-0.011719 2.7461-0.25781 4.043-0.73047-0.50781-0.30859-0.96094-0.69922-1.3398-1.1523-0.87891 0.24219-1.7891 0.375-2.7031 0.38281-5.8008 0-10.5-4.6992-10.5-10.5s4.6992-10.5 10.5-10.5 10.5 4.6992 10.5 10.5c-0.007812 0.91406-0.13672 1.8242-0.38281 2.7031 0.45312 0.37891 0.84375 0.83203 1.1523 1.3398 0.47266-1.2969 0.71875-2.6641 0.73047-4.043 0-6.6289-5.3711-12-12-12z"/>
  <path d="m18.754 14.672c-2.2539 0-4.082 1.8281-4.082 4.082 0 2.2578 1.8281 4.0859 4.082 4.0859 2.2578 0 4.0859-1.8281 4.0859-4.0859 0-2.2539-1.8281-4.082-4.0859-4.082zm-0.58203 1.168h1.168v2.332h2.332v1.168h-2.332v2.332h-1.168v-2.332h-2.3359v-1.168h2.3359z"/>
 </g>
</svg>
